X: 7072
T: Chris Droney's Favourite
R: reel
M: 4/4
K: Adorian
|:BEED ~E2ef|edBe dBAG|FDAD BDAD|~F3A dBAd|
BE (3EEE ~E2 ef|edBe d2fd|(3efg fe dBAF|DEFD ~E3A:|
|:e2Be eBfB|edBe dBAG|(3FED AD BDAD|(3FED FA defd|
Beed (3efe de|fd (3ddd edfd|(3efg fe dBAF|DEFD ~E3d:|

